X:360
T:Peter Wyper's Hornpipe
D:Jimmy Blue's Welcome to Scotland
Z:Nigel Gatherer
L:1/8
M:4/4
K:D
A>G|F>DF>A d>AF>D|G>EF>D A,>CE>G|F>Ad>f a>fd>f|(3efe (3dcB (3ABA (3GFE|
F>DF>A d>AF>D|G>EF>D A,>CE>G|F>Ad>A B>GE>C|D2 D2 D2:|
(3ded|c>de>f g>ec>A|d>fa>f b>af>a|a>gB>g g>fA>f|3efe (3dcB (3ABA (3GFE|
F>DF>A d>AF>D|G>EF>D A,>CE>G|F>Ad>A B>GE>C|D2 D2 D2:|
<end>
<start>
